site/plugins/site/icons/code.svg

<svg width="16" height="16" viewBox="0 0 16 16" class="icon icon-code">
  <path d="M10.5 3l-1.5 1.5 3.5 3.5-3.5 3.5 1.5 1.5 4.5-5-4.5-5zM5.5 3l-4.5 5 4.5 5 1.5-1.5-3.5-3.5 3.5-3.5-1.5-1.5z"></path>
</svg>

<svg width="16" height="16" class="icon icon-code"><path d="M10.5 3L9 4.5 12.5 8 9 11.5l1.5 1.5L15 8l-4.5-5zm-5 0L1 8l4.5 5L7 11.5 3.5 8 7 4.5 5.5 3z"/></svg>
